X:7236
T:Horse and Jockey
M:6/8
L:1/8
C:Taz Tarry
S:Copyright B.Tarry 1983
R:Jig
K:D
f2f fed|B2B BAG|FGA Bcd|efg gfe|!f2f fed|B2B BAG|FGA BAG|Adc d3:|!
fdf fdf|ecA GFE|DFA Bcd|fdf e2g|!fdA fdA|ecA GFE|DFA dcB|Adcd2:|
